src/images_karasa_jaga_svg/svx/res/sh04.svg

<svg height="15" width="15" xmlns="http://www.w3.org/2000/svg" xmlns:xlink="http://www.w3.org/1999/xlink"><filter id="a"><feGaussianBlur stdDeviation="1.0394514"/></filter><filter id="b"><feGaussianBlur stdDeviation=".50063244"/></filter><radialGradient id="c" cx="18.583333" cy="18.659401" gradientUnits="userSpaceOnUse" r="17.422877"><stop offset="0" stop-color="#00537d"/><stop offset=".0151" stop-color="#186389"/><stop offset=".0558" stop-color="#558ca8"/><stop offset=".0964" stop-color="#89afc3"/><stop offset=".1357" stop-color="#b3ccd8"/><stop offset=".1737" stop-color="#d4e2e9"/><stop offset=".2099" stop-color="#ecf2f5"/><stop offset=".2435" stop-color="#fafcfd"/><stop offset=".2722" stop-color="#fff"/></radialGradient><radialGradient id="d" cx="103.73339" cy="119.11258" gradientTransform="matrix(.11196793 0 0 .11232198 1.332486 .472258)" gradientUnits="userSpaceOnUse" r="139.55859"><stop offset="0" stop-color="#e3e4e4"/><stop offset=".11366145" stop-color="#ececed"/><stop offset=".20296688" stop-color="#ececec"/><stop offset=".2363" stop-color="#fafafa"/><stop offset=".2722" stop-color="#fff"/><stop offset=".5313" stop-color="#fafafa"/><stop offset=".8449" stop-color="#ebecec"/><stop offset="1" stop-color="#e1e2e3"/></radialGradient><path d="m4 0h11v11h-11z" fill="#ababab"/><path d="m23 25.413793.040816 95.586207h61.131184l34.242-.10366c.375-.375.586-.884.586-1.414v-94.068547z" fill="#c1c1c1" fill-opacity=".856618" filter="url(#a)" opacity=".835616" transform="matrix(.11396538 0 0 .11331414 -.591542 -.740674)"/><path d="m23 24.448276.04082 96.551724h61.131184l34.241996-.10366c.375-.375.586-.884.586-1.414v-95.034064z" fill="#c7c7c7" filter="url(#a)" opacity=".715069" transform="matrix(.11396538 0 0 .11331414 -.591542 -.740674)"/><path d="m24.919999 26.379412v92.689658l91.574001.0893c.375-.375.586-.884.586-1.414v-91.364998h-92.160001z" fill="#c7c7c7" filter="url(#b)" opacity=".89589" transform="matrix(.11396538 0 0 .11331414 -.591542 -.740674)"/><path d="m3 3v9l9 .000001v-9.0000001z" fill="url(#c)" stroke-width=".124843"/><path d="m4 3.9239321c-.061695 0-.1119678.050432-.1119678.1123218l.034321 6.9275171c0 .062.050274.112323.111968.112323l7.0073848-.01359c.02094-.021.03281-.04987.03281-.07941v-6.9468392c0-.06189-.05016-.1123218-.111966-.1123218z" fill="url(#d)" stroke-width=".114402"/></svg>

<?xml version="1.0" encoding="UTF-8" standalone="no"?>
<svg
   xmlns:dc="http://purl.org/dc/elements/1.1/"
   xmlns:cc="http://creativecommons.org/ns#"
   xmlns:rdf="http://www.w3.org/1999/02/22-rdf-syntax-ns#"
   xmlns:svg="http://www.w3.org/2000/svg"
   xmlns="http://www.w3.org/2000/svg"
   xmlns:sodipodi="http://sodipodi.sourceforge.net/DTD/sodipodi-0.dtd"
   xmlns:inkscape="http://www.inkscape.org/namespaces/inkscape"
   height="15"
   width="15"
   version="1.1"
   id="svg14"
   sodipodi:docname="sh04.svg"
   inkscape:export-filename="/home/rizmut/Dokumen/Rizmut/Github/libreoffice-style-karasa-jaga/build/images_karasa_jaga/svx/res/sh04.png"
   inkscape:export-xdpi="96"
   inkscape:export-ydpi="96"
   inkscape:version="0.92.3 (unknown)">
  <metadata
     id="metadata20">
    <rdf:RDF>
      <cc:Work
         rdf:about="">
        <dc:format>image/svg+xml</dc:format>
        <dc:type
           rdf:resource="http://purl.org/dc/dcmitype/StillImage" />
        <dc:title></dc:title>
      </cc:Work>
    </rdf:RDF>
  </metadata>
  <defs
     id="defs18">
    <filter
       id="a">
      <feGaussianBlur
         stdDeviation="1.0394514"
         id="feGaussianBlur2" />
    </filter>
    <filter
       id="b">
      <feGaussianBlur
         stdDeviation=".50063244"
         id="feGaussianBlur5" />
    </filter>
    <filter
       id="filter883">
      <feGaussianBlur
         stdDeviation="1.0394514"
         id="feGaussianBlur881" />
    </filter>
    <radialGradient
       id="c"
       cx="153.70804"
       cy="153.70793"
       gradientUnits="userSpaceOnUse"
       r="162.19046"
       fx="153.70804"
       fy="153.70793"
       gradientTransform="matrix(0.10742233,0,0,0.10742233,2.0716572,2.1477366)">
      <stop
         offset="0"
         stop-color="#00537d"
         id="stop8" />
      <stop
         offset=".0151"
         stop-color="#186389"
         id="stop10" />
      <stop
         offset=".0558"
         stop-color="#558ca8"
         id="stop12" />
      <stop
         offset=".0964"
         stop-color="#89afc3"
         id="stop14" />
      <stop
         offset=".1357"
         stop-color="#b3ccd8"
         id="stop16" />
      <stop
         offset=".1737"
         stop-color="#d4e2e9"
         id="stop18" />
      <stop
         offset=".2099"
         stop-color="#ecf2f5"
         id="stop20" />
      <stop
         offset=".2435"
         stop-color="#fafcfd"
         id="stop22" />
      <stop
         offset=".2722"
         stop-color="#fff"
         id="stop24" />
    </radialGradient>
    <radialGradient
       id="d"
       cx="103.73339"
       cy="119.11258"
       gradientTransform="matrix(0.11196793,0,0,0.11232198,1.3324859,0.4722579)"
       gradientUnits="userSpaceOnUse"
       r="139.55859"
       fx="103.73339"
       fy="119.11258">
      <stop
         offset="0"
         stop-color="#e3e4e4"
         id="stop27" />
      <stop
         offset=".11366145"
         stop-color="#ececed"
         id="stop29" />
      <stop
         offset=".20296688"
         stop-color="#ececec"
         id="stop31" />
      <stop
         offset=".2363"
         stop-color="#fafafa"
         id="stop33" />
      <stop
         offset=".2722"
         stop-color="#fff"
         id="stop35" />
      <stop
         offset=".5313"
         stop-color="#fafafa"
         id="stop37" />
      <stop
         offset=".8449"
         stop-color="#ebecec"
         id="stop39" />
      <stop
         offset="1"
         stop-color="#e1e2e3"
         id="stop41" />
    </radialGradient>
  </defs>
  <sodipodi:namedview
     pagecolor="#ffffff"
     bordercolor="#666666"
     borderopacity="1"
     objecttolerance="10"
     gridtolerance="10"
     guidetolerance="10"
     inkscape:pageopacity="0"
     inkscape:pageshadow="2"
     inkscape:window-width="1366"
     inkscape:window-height="706"
     id="namedview16"
     showgrid="true"
     inkscape:zoom="11.125147"
     inkscape:cx="17.900796"
     inkscape:cy="0.98799355"
     inkscape:window-x="0"
     inkscape:window-y="0"
     inkscape:window-maximized="1"
     inkscape:current-layer="svg14"
     inkscape:snap-global="true"
     showguides="false">
    <inkscape:grid
       type="xygrid"
       id="grid827"
       empspacing="2"
       spacingx="0.5"
       spacingy="0.5" />
    <sodipodi:guide
       position="-21.800848,13.220339"
       orientation="-0.70710678,0.70710678"
       id="guide876"
       inkscape:locked="false" />
  </sodipodi:namedview>
  <rect
     style="opacity:1;fill:#ababab;fill-opacity:1;stroke:none;stroke-width:0.5;stroke-linecap:square;stroke-linejoin:round;stroke-miterlimit:4;stroke-dasharray:none;stroke-dashoffset:0;stroke-opacity:1"
     id="rect908"
     width="11"
     height="11"
     x="4"
     y="0" />
  <path
     inkscape:connector-curvature="0"
     style="opacity:0.83561599;fill:#c1c1c1;fill-opacity:0.85661765;stroke:none;filter:url(#a)"
     d="M 23,25.413793 23.040816,121 H 84.172 l 34.242,-0.10366 c 0.375,-0.375 0.586,-0.884 0.586,-1.414 V 25.413793 Z"
     transform="matrix(0.11396538,0,0,0.11331414,-0.59154228,-0.74067442)"
     id="path48" />
  <path
     inkscape:connector-curvature="0"
     style="opacity:0.71506898;fill:#c7c7c7;fill-opacity:1;stroke:none;filter:url(#a)"
     d="M 23,24.448276 23.04082,121 H 84.172004 L 118.414,120.89634 c 0.375,-0.375 0.586,-0.884 0.586,-1.414 V 24.448276 Z"
     transform="matrix(0.11396538,0,0,0.11331414,-0.59154228,-0.74067442)"
     id="path44" />
  <path
     inkscape:connector-curvature="0"
     style="opacity:0.89589;fill:#c7c7c7;fill-opacity:1;filter:url(#b)"
     d="m 24.919999,26.379412 v 92.689658 l 91.574001,0.0893 c 0.375,-0.375 0.586,-0.884 0.586,-1.414 V 26.379372 H 24.919999 Z"
     transform="matrix(0.11396538,0,0,0.11331414,-0.59154228,-0.74067442)"
     id="path46" />
  <path
     id="path50"
     d="m 3,3 v 9 l 9,10e-7 V 3.0000009 Z"
     inkscape:connector-curvature="0"
     style="fill:url(#c);stroke-width:0.1248428"
     sodipodi:nodetypes="ccccc" />
  <path
     id="path52"
     d="m 4,3.9239321 c -0.061695,0 -0.1119678,0.050432 -0.1119678,0.1123218 l 0.034321,6.9275171 c 0,0.062 0.050274,0.112323 0.111968,0.112323 l 7.0073848,-0.01359 c 0.02094,-0.021 0.03281,-0.04987 0.03281,-0.07941 V 4.0362548 c 0,-0.06189 -0.05016,-0.1123218 -0.111966,-0.1123218 z"
     inkscape:connector-curvature="0"
     style="fill:url(#d);stroke-width:0.11440199"
     sodipodi:nodetypes="sccccssss" />
</svg>
